modules/zondicons/icons/keyboard.svg

<svg width="20" height="20" viewBox="0 0 20 20" xmlns="http://www.w3.org/2000/svg"><path d="M0 6.009C0 4.899.898 4 1.99 4h16.02C19.108 4 20 4.902 20 6.009v7.982c0 1.11-.898 2.009-1.99 2.009H1.99C.892 16 0 15.098 0 13.991V6.01zM2 6h2v2H2V6zm1 3h2v2H3V9zm-1 3h2v2H2v-2zm3 0h10v2H5v-2zm11 0h2v2h-2v-2zM6 9h2v2H6V9zm3 0h2v2H9V9zm3 0h2v2h-2V9zm3 0h2v2h-2V9zM5 6h2v2H5V6zm3 0h2v2H8V6zm3 0h2v2h-2V6zm3 0h4v2h-4V6z" fill="#000" fill-rule="evenodd"/></svg>

<?xml version="1.0" encoding="UTF-8" standalone="no"?>
<svg width="20px" height="20px" viewBox="0 0 20 20" version="1.1" xmlns="http://www.w3.org/2000/svg" xmlns:xlink="http://www.w3.org/1999/xlink">
    <!-- Generator: Sketch 3.7.2 (28276) - http://www.bohemiancoding.com/sketch -->
    <title>keyboard</title>
    <desc>Created with Sketch.</desc>
    <defs></defs>
    <g id="Page-1" stroke="none" stroke-width="1" fill="none" fill-rule="evenodd">
        <g id="keyboard" fill="#000000">
            <path d="M0,6.0085302 C0,4.8992496 0.898212381,4 1.99079514,4 L18.0092049,4 C19.1086907,4 20,4.90195036 20,6.0085302 L20,13.9914698 C20,15.1007504 19.1017876,16 18.0092049,16 L1.99079514,16 C0.891309342,16 0,15.0980496 0,13.9914698 L0,6.0085302 Z M2,6 L4,6 L4,8 L2,8 L2,6 Z M3,9 L5,9 L5,11 L3,11 L3,9 Z M2,12 L4,12 L4,14 L2,14 L2,12 Z M5,12 L15,12 L15,14 L5,14 L5,12 Z M16,12 L18,12 L18,14 L16,14 L16,12 Z M6,9 L8,9 L8,11 L6,11 L6,9 Z M9,9 L11,9 L11,11 L9,11 L9,9 Z M12,9 L14,9 L14,11 L12,11 L12,9 Z M15,9 L17,9 L17,11 L15,11 L15,9 Z M5,6 L7,6 L7,8 L5,8 L5,6 Z M8,6 L10,6 L10,8 L8,8 L8,6 Z M11,6 L13,6 L13,8 L11,8 L11,6 Z M14,6 L18,6 L18,8 L14,8 L14,6 Z" id="Combined-Shape"></path>
        </g>
    </g>
</svg>
